X:97
M:C|
L:1/8
Q:1/2=80
K:D
dB|AFDF A2 dB|AFDF A2 dB|AFDF B2 eG|\
|:dd|ccBB A2 AB/c/|dFED HA2 dB|AFDF E2 dB|\

